X: 23
T:Jenny Lind (Bampton) (EDS Alt)
M:2/4
L:1/16
A:EDS Autumn 1969
O:England; Oxfordshire; Bampton.
B:Lionel Bacon, A Handbook of Morris Dances
Z:http://www.themorrisring.org/music/handbook-morris-dances
P:A(AB2)4
K:D
P:A
Q:360
DE|F2A2 G2B2|A2f2 f2ef|G2e2 e2de|F2d2 d2cd|
F2A2 G2B2|A2f2 f2ef|g2e2 egfe|d2f2 d2  ||
P:B
M:4/4
L:1/8
Q:360
|:Bc|d2B2 BdcB|A2F2 F2EF|G2E2 EGFE|E2D2 D2:||

